X:1
T:Living for Jesus
T:Text: Thomas O Chisolm, 1917, alt. Tune: C. Harold Lowden, 1915
T:10 10 10 10 with refrain LIVING FOR JESUS www.hymnary.org//text/living_for_jesus_a_life_that_is_true
T:Living for Jesus
T:This hymn is in the public domain. You may freely use this score for personal and congregational worship. If you reproduce the score, please credit Hymnary.org as the source. 
T:This hymn is in the public domain. You may freely use this score for personal and congregational worship. If you reproduce the score, please credit Hymnary.org as the source. 
T:This hymn is in the public domain. You may freely use this score for personal and congregational worship. If you reproduce the score, please credit Hymnary.org as the source. 
Z:This hymn is in the public domain. You may freely use this score for personal and congregational worship. If you reproduce the score, please credit Hymnary.org as the source.
%%score ( 1 2 ) ( 3 4 )
L:1/8
M:4/4
K:Eb
V:1 treble nm="SOPRANO ALTO" snm="S. A."
V:2 treble 
V:3 bass nm="TENOR BASS" snm="T. B."
V:4 bass 
V:1
"^Capo 1:""^1""^2""^3""^Eb(D)" G2 A4 G2 |"^Bb(A)" B2 F4 G2 |"^Ab(G)" A2 E4 F2 |"^Eb(D)" G8 | %4
w: Liv- ing for|Je- sus a|life that is|true,|
w: Liv- ing for|Je- sus, who|died in my|place,|
w: Liv- ing for|Je- sus wher-|ev- er I|am,|
"^Bb(A)" G2 F4 G2 |"^Cm(Bm)" F2 E4 D2 |"^F7(E7)" C2 G4 F2 |"^Bb(A)" F8 |"^Eb(D)" G2 E4 G2 | %9
w: striv- ing to|please him in|all that I|do,|yield- ing al-|
w: bear- ing on|Cal- vary my|sin and dis-|grace:|such love con-|
w: do- ing each|du- ty in|his ho- ly|name,|seek- ing the|
"^Bb(A)" B2 F4 G2 |"^Ab(G)" A2 E4 F2 |"^G(F#)" G8 |1"^Ab(G)" F2 d4 c2 |"^Eb(D)" B2 E4 F2 | %14
w: le- giance glad|heart- ed and|free—|this is the|path- way of|
w: strains me to|an- swer his|call,|fol- low his|lead- ing, and|
w: lost ones he|died to re-|deem,|bring- ing the|wea- ry to|
"^Bb7(A7)" G2 G4 F2 |"^Eb(D)" E6 ||"^Page 2""^Refrain(may be sung after stanza 3 only)" B,2 | %17
w: bless- ing for|me.|O|
w: give him my|all.||
w: find rest in|him.||
 B,2 G2"^Bb(A)" G2 F2 |"^Eb(D)" F2 F4 C2 |"^Fm(Em)" C2 A2"^C7(B7)" A2"^Living for Jesus" G2 | %20
w: Je- sus, Lord and|Sav- ior I|give my- self to|
w: |||
w: |||
"^Fm(Em)" F6 | E2 |"^Bb(A)" D2 B2 B2 A2 |"^Eb(D)" A2 G4 G2 |"^F7(E7)" G2 F2 C2 G2 |"^Bb7(A7)" F6 | %26
w: you,|for|you in your a-|tone- ment did|give your- self for|me.|
w: ||||||
w: ||||||
 B,2 |"^Eb(D)" B,2 G2"^Bb(A)" G2 F2 |"^Eb(D)" F2 E4 E2 | E2 c2"^Eb7(D7)" c2 B2 |"^Ab(G)" A6 | C2 | %32
w: I|own no oth- er|mas- ter— my|heart shall be your|throne:|my|
w: ||||||
w: ||||||
 E2 D2 E2 F2 |"^Eb(D)" G2 G2"^C7(B7)" A2 G2 |"^F7(E7)" G2 F2"^Bb7(A7)" C2 D2 |"^Eb(D)" E8 |] %36
w: life I give, hence-|forth to live, O|Christ, for you a-|lone.|
w: ||||
w: ||||
V:2
 E2 E4 E2 | D2 D4 _D2 | C2 C4 E2 | E8 | D2 D4 D2 | D2 C4 D2 | C2 E4 E2 | D8 | E2 C4 E2 | %9
 D2 D4 _D2 | C2 C4 C2 | D8 |1 F2 ^F4 F2 | G2 E4 E2 | E2 D4 D2 | B,6 || B,2 | B,2 E2 D2 D2 | %18
 B,2 B,4 C2 | C2 F2 =E2 E2 | C6 | C2 | B,2 D2 D2 D2 | E2 E4 E2 | E2 E2 C2 E2 | D6 | B,2 | %27
 B,2 E2 D2 D2 | B,2 B,4 B,2 | B,2 E2 E2 _D2 | C6 | A,2 | C2 =B,2 C2 E2 | E2 E2 =E2 E2 | %34
 _E2 E2 C2 B,2 | B,8 |] %36
V:3
 B,2 C4 B,2 | B,2 B,4 B,2 | A,2 A,4 _C2 | B,8 | B,2 A,4 B,2 | A,2 G,4 B,2 | =A,2 A,4 A,2 | B,8 | %8
 B,2 C4 B,2 | B,2 B,4 B,2 | A,2 A,4 C2 | =B,8 |1 C2 D4 E2 | E2 B,4 C2 | B,2 B,4 A,2 | G,6 || B,2 | %17
 G,2 B,2 B,2 A,2 | A,2 G,4 B,2 | A,2 C2 C2 B,2 | A,6 | A,2 | A,2 F,2 F,2 B,2 | C2 B,4 B,2 | %24
 =A,2 A,2 A,2 A,2 | A,6 | A,2 | G,2 B,2 B,2 A,2 | A,2 G,4 G,2 | G,2 G,2 G,2 G,2 | E,6 | E,2 | %32
 A,2 A,2 A,2 _C2 | B,2 B,2 B,2 B,2 | =A,2 A,2 _A,2 A,2 | G,8 |] %36
V:4
 E,2 E,4 E,2 | B,,2 B,,4 E,2 | A,,2 A,,4 A,,2 | E,8 | B,,2 B,,4 B,,2 | C,2 C,4 C,2 | F,2 F,4 F,2 | %7
 B,,8 | E,2 E,4 E,2 | B,,2 B,,4 E,2 | A,,2 A,4 A,2 | G,8 |1 A,2 =A,4 A,2 | B,2 G,4 A,2 | %14
 B,2 B,,4 B,,2 | E,6 || B,,2 | E,2 E,2 B,,2 B,,2 | E,2 E,4 =E,2 | F,2 F,2 C,2 C,2 | F,6 | F,,2 | %22
 B,,2 B,,2 B,,2 B,,2 | E,2 E,4 E,2 | C,2 C,2 F,,2 F,,2 | B,,6 | D,2 | E,2 E,2 B,,2 B,,2 | %28
 E,2 E,4 E,2 | E,2 E,2 E,2 E,2 | A,,6 | A,,2 | A,,2 A,,2 A,,2 A,,2 | B,,2 _D,2 C,2 C,2 | %34
 F,,2 F,,2 B,,2 B,,2 | E,8 |] %36

